resources/haticons/SVG/list_alt.svg

<!-- Generated by IcoMoon.io -->
<svg version="1.1" xmlns="http://www.w3.org/2000/svg" width="24" height="24" viewBox="0 0 24 24">
<title>list_alt</title>
<path d="M6.984 15h2.016v2.016h-2.016v-2.016zM6.984 11.016h2.016v1.969h-2.016v-1.969zM6.984 6.984h2.016v2.016h-2.016v-2.016zM11.016 15h6v2.016h-6v-2.016zM11.016 11.016h6v1.969h-6v-1.969zM11.016 6.984h6v2.016h-6v-2.016zM20.109 3q0.328 0 0.609 0.258t0.281 0.633v16.219q0 0.328-0.281 0.609t-0.609 0.281h-16.219q-0.375 0-0.633-0.281t-0.258-0.609v-16.219q0-0.891 0.891-0.891h16.219zM18.984 5.016h-13.969v13.969h13.969v-13.969z"></path>
</svg>

<svg xmlns="http://www.w3.org/2000/svg" width="24" height="24"><path d="M6.984 15H9v2.016H6.984V15zm0-3.984H9v1.969H6.984v-1.969zm0-4.032H9V9H6.984V6.984zM11.016 15h6v2.016h-6V15zm0-3.984h6v1.969h-6v-1.969zm0-4.032h6V9h-6V6.984zM20.109 3q.328 0 .609.258t.281.633V20.11q0 .328-.281.609t-.609.281H3.89q-.375 0-.633-.281t-.258-.609V3.891Q2.999 3 3.89 3h16.219zm-1.125 2.016H5.015v13.969h13.969V5.016z"/></svg>
